X:1
T:Nu ska vi skorda - Swedish
M:3/4
L:1/8
Q:80
C:
S:Trad.
K:HP
[| a2{g}a3/2f/2{g}d3/2f/2 | \
a2{g}a3/2f/2{g}d2 | \
{gef}e2g3/2e/2{g}c3/2e/2 |
{Gdc}d2{g}f3/2d/2{G}A2 | \
a2{g}a3/2f/2{g}d3/2f/2 | \
a2{g}a3/2f/2{g}d2 |
{gef}e2g3/2e/2{g}c3/2e/2 | \
{Gdc}d2{g}d2-d2|]
{g}A2B2c2 |
{g}d2e2f2 | \
{a}g2{f}g3/2f/2{g}e2 | \
{g}f2{e}f3/2e/2{g}d2 |
{g}A2B2c2 | \
{g}d2e2f2 | \
{a}g2{f}g3/2e/2{g}c3/2e/2 |
{Gdc}d2{g}d2-d2|]
